modules/hawcons-stroke/icons/icon-61-face-moustache.svg

<?xml version="1.0" encoding="UTF-8" standalone="no"?>
<svg width="32px" height="32px" viewBox="0 0 32 32" version="1.1" xmlns="http://www.w3.org/2000/svg" xmlns:xlink="http://www.w3.org/1999/xlink" xmlns:sketch="http://www.bohemiancoding.com/sketch/ns">
    <!-- Generator: Sketch 3.0.3 (7891) - http://www.bohemiancoding.com/sketch -->
    <title>icon 61 face moustache</title>
    <desc>Created with Sketch.</desc>
    <defs></defs>
    <g id="Page-1" stroke="none" stroke-width="1" fill="none" fill-rule="evenodd" sketch:type="MSPage">
        <g id="icon-61-face-moustache" sketch:type="MSArtboardGroup" fill="#929292">
            <path d="M16.5,20.758181 C16.9341949,21.5351991 17.8688631,22.7817628 19.8052172,22.8730114 C22.5,23 24.9640493,20.5 24.9640493,19.5600852 C23.9255495,20.6954545 22.1907143,20.7974911 21.2258673,20.3315341 C19.8052172,19.6454545 20.0519068,18.2874645 19.0162871,17.3988636 C18.4276582,16.8937978 17.591647,16.8635238 16.8760262,17.3988636 C16.7470174,17.4953722 16.6175487,17.6187085 16.5,17.7673959 C16.3824513,17.6187085 16.2529826,17.4953722 16.1239738,17.3988636 C15.408353,16.8635238 14.5723418,16.8937978 13.9837129,17.3988636 C12.9480932,18.2874645 13.1947828,19.6454545 11.7741327,20.3315341 C10.8092857,20.7974911 9.07445048,20.6954545 8.03595074,19.5600852 C8.03595074,20.5 10.5,23 13.1947828,22.8730114 C15.1311369,22.7817628 16.0658051,21.5351991 16.5,20.758181 L16.5,20.758181 Z M16.5,29 C23.4035597,29 29,23.4035597 29,16.5 C29,9.59644029 23.4035597,4 16.5,4 C9.59644029,4 4,9.59644029 4,16.5 C4,23.4035597 9.59644029,29 16.5,29 L16.5,29 Z M16.5,28 C22.8512749,28 28,22.8512749 28,16.5 C28,10.1487251 22.8512749,5 16.5,5 C10.1487251,5 5,10.1487251 5,16.5 C5,22.8512749 10.1487251,28 16.5,28 L16.5,28 Z M12,16 C13.6568543,16 15,14.6568543 15,13 C15,11.3431457 13.6568543,10 12,10 C10.3431457,10 9,11.3431457 9,13 C9,14.6568543 10.3431457,16 12,16 L12,16 Z M12,15 C13.1045696,15 14,14.1045696 14,13 C14,11.8954304 13.1045696,11 12,11 C10.8954304,11 10,11.8954304 10,13 C10,14.1045696 10.8954304,15 12,15 L12,15 Z M12,14 C12.5522848,14 13,13.5522848 13,13 C13,12.4477152 12.5522848,12 12,12 C11.4477152,12 11,12.4477152 11,13 C11,13.5522848 11.4477152,14 12,14 L12,14 Z M21,14 C21.5522848,14 22,13.5522848 22,13 C22,12.4477152 21.5522848,12 21,12 C20.4477152,12 20,12.4477152 20,13 C20,13.5522848 20.4477152,14 21,14 L21,14 Z" id="face-moustache" sketch:type="MSShapeGroup"></path>
        </g>
    </g>
</svg>

<svg width="32" height="32" viewBox="0 0 32 32" xmlns="http://www.w3.org/2000/svg"><path d="M16.5 20.758c.434.777 1.369 2.024 3.305 2.115C22.5 23 24.964 20.5 24.964 19.56c-1.038 1.135-2.773 1.237-3.738.772-1.42-.687-1.174-2.045-2.21-2.933-.588-.505-1.424-.535-2.14 0-.129.096-.258.22-.376.368a2.046 2.046 0 0 0-.376-.368c-.716-.535-1.552-.505-2.14 0-1.036.888-.79 2.246-2.21 2.933-.965.465-2.7.363-3.738-.772 0 .94 2.464 3.44 5.159 3.313 1.936-.091 2.87-1.338 3.305-2.115zm0 8.242C23.404 29 29 23.404 29 16.5S23.404 4 16.5 4 4 9.596 4 16.5 9.596 29 16.5 29zm0-1C22.851 28 28 22.851 28 16.5S22.851 5 16.5 5 5 10.149 5 16.5 10.149 28 16.5 28zM12 16a3 3 0 1 0 0-6 3 3 0 0 0 0 6zm0-1a2 2 0 1 0 0-4 2 2 0 0 0 0 4zm0-1a1 1 0 1 0 0-2 1 1 0 0 0 0 2zm9 0a1 1 0 1 0 0-2 1 1 0 0 0 0 2z" fill="#929292" fill-rule="evenodd"/></svg>
